Costumes/Q-glow.svg

<?xml version="1.0" encoding="UTF-8" standalone="no"?>
<svg
   version="1.1"
   width="67.389999"
   height="86.389999"
   id="svg8"
   sodipodi:docname="Q-glow.svg"
   xmlns:inkscape="http://www.inkscape.org/namespaces/inkscape"
   xmlns:sodipodi="http://sodipodi.sourceforge.net/DTD/sodipodi-0.dtd"
   xmlns="http://www.w3.org/2000/svg"
   xmlns:svg="http://www.w3.org/2000/svg">
  <defs
     id="defs12" />
  <sodipodi:namedview
     id="namedview10"
     pagecolor="#ffffff"
     bordercolor="#000000"
     borderopacity="0.25"
     inkscape:showpageshadow="2"
     inkscape:pageopacity="0.0"
     inkscape:pagecheckerboard="0"
     inkscape:deskcolor="#d1d1d1" />
  <!-- Exported by Scratch - http://scratch.mit.edu/ -->
  <g
     id="ID0.8196931323036551">
    <g
       id="ID0.7350841015577316">
      <g
         id="ID0.34164572414010763">
        <path
           id="ID0.9722420736216009"
           fill="#00cccc"
           d="m 67.39,70.11 c 0,3.04 -1.13,5.88 -3.18,8 -0.33,0.34 -0.68,0.66 -1.05,0.95 -0.59,0.47 -1.37,1.08 -2.34,1.82 -4.36,3.65 -8.87,5.51 -13.4,5.51 -1.43,0 -2.9,-0.18 -4.5,-0.55 -0.18,-0.04 -0.36,-0.09 -0.54,-0.14 -3.29,-0.94 -6.29,-2.97 -9.43,-6.38 -2.02,-2.2 -3.5,-4.35 -4.48,-6.51 -4.18,-0.36 -8.2,-1.53 -11.98,-3.5 C 11.4,66.63 7.4,62.86 4.54,58.06 4.52,58.02 4.5,57.99 4.48,57.95 2.77,55.01 1.51,51.27 0.63,46.53 0.61,46.44 0.6,46.35 0.59,46.27 0.2,43.88 0,41.46 0,39.06 0,32.91 1.35,26.87 4,21.1 4.02,21.04 4.05,20.98 4.08,20.93 6.06,16.8 9.02,12.83 13.15,8.78 19.15,2.87 24.92,0 30.8,0 c 1.33,0 3.33,0.14 8.84,1.15 5.01,0.96 10,3.55 15.36,7.93 0.06,0.05 0.13,0.11 0.19,0.16 2.69,2.3 4.82,5.64 6.91,10.83 1.94,4.84 2.92,9.86 2.92,14.94 0,3.64 -0.5,7.47 -1.48,11.38 0,0.03 -0.01,0.07 -0.02,0.1 -0.99,3.8 -1.96,6.41 -3.15,8.46 -0.05,0.08 -0.09,0.16 -0.14,0.24 -0.43,0.69 -0.87,1.36 -1.32,2.02 0.84,0.32 1.65,0.71 2.43,1.17 2.35,1.41 4.05,3.62 4.85,6.16 0.02,0.05 0.04,0.1 0.06,0.15 0.78,1.97 1.14,3.68 1.14,5.42 z" />
      </g>
    </g>
    <g
       id="ID0.03899008361622691">
      <path
         id="ID0.6533174994401634"
         fill="#ffffff"
         d="m 56.303,70.461 c -0.587,0.468 -1.378,1.084 -2.375,1.847 -2.405,2.052 -4.574,3.079 -6.509,3.079 -0.587,0 -1.262,-0.089 -2.023,-0.265 -1.231,-0.352 -2.683,-1.438 -4.354,-3.254 -1.671,-1.818 -2.654,-3.402 -2.946,-4.75 0.058,0 0.146,-0.06 0.264,-0.176 -0.411,-0.587 -0.88,-2.521 -1.407,-5.806 -1.76,0.527 -3.666,0.792 -5.718,0.792 -3.401,0 -6.627,-0.792 -9.676,-2.376 -3.226,-1.7 -5.748,-4.074 -7.564,-7.124 -1.056,-1.817 -1.906,-4.456 -2.551,-7.917 -0.294,-1.816 -0.44,-3.635 -0.44,-5.453 0,-4.574 0.997,-9.03 2.991,-13.37 1.407,-2.932 3.694,-5.951 6.86,-9.061 3.812,-3.752 7.125,-5.629 9.94,-5.629 1.055,0 3.342,0.323 6.86,0.968 3.049,0.587 6.509,2.463 10.379,5.629 1.231,1.056 2.521,3.255 3.871,6.598 1.407,3.518 2.11,7.124 2.11,10.818 0,2.758 -0.382,5.66 -1.144,8.708 -0.703,2.698 -1.378,4.604 -2.022,5.718 -2.229,3.637 -5.044,6.656 -8.444,9.061 0,3.108 0.439,5.776 1.319,8.004 1.113,2.932 2.756,4.251 4.926,3.959 0.117,0 0.908,-0.646 2.375,-1.936 0.88,-0.822 1.816,-1.231 2.814,-1.231 0.645,0 1.261,0.176 1.848,0.527 0,0.058 0.116,0.381 0.352,0.968 0.233,0.586 0.352,1.025 0.352,1.319 0,0.176 -0.03,0.293 -0.088,0.353 z M 49.09,35.979 c -0.059,-1.641 -0.264,-3.899 -0.615,-6.772 -0.118,-0.117 -0.323,-0.732 -0.616,-1.848 -1.35,-4.632 -3.694,-7.564 -7.036,-8.796 -0.88,-0.586 -2.142,-1.261 -3.782,-2.023 -2.758,-0.82 -5.601,-1.025 -8.532,-0.615 -1.702,0.235 -4.077,2.229 -7.125,5.981 -2.639,3.342 -4.341,6.509 -5.102,9.499 -0.471,1.818 -0.704,3.666 -0.704,5.542 0,1.936 0.233,3.958 0.704,6.069 0.176,1.35 0.645,3.313 1.407,5.894 1.056,2.405 3.137,4.545 6.245,6.421 0.058,-0.82 0.527,-2.315 1.407,-4.486 0.996,-1.583 1.76,-2.551 2.287,-2.902 1.524,-1.056 3.167,-1.583 4.926,-1.583 4.163,0 7.271,2.198 9.324,6.597 0.82,-0.938 1.816,-2.111 2.99,-3.519 0.645,-0.645 1.275,-1.744 1.891,-3.299 0.616,-1.553 1.1,-2.477 1.452,-2.771 -0.06,-0.293 -0.089,-0.585 -0.089,-0.88 0,-0.292 0.146,-1.099 0.44,-2.418 0.294,-1.32 0.47,-2.684 0.528,-4.091 z M 36.424,56.298 c -0.527,-2.052 -1.174,-3.4 -1.935,-4.047 -0.528,-0.409 -1.174,-0.615 -1.936,-0.615 -1.583,0 -2.551,0.733 -2.902,2.199 -0.118,0.234 -0.265,0.499 -0.44,0.791 -0.176,0.587 -0.352,1.408 -0.527,2.463 2.99,0.471 5.57,0.207 7.74,-0.791 z" />
    </g>
  </g>
</svg>

<svg version="1.1" width="68" height="87" xmlns="http://www.w3.org/2000/svg" xmlns:xlink="http://www.w3.org/1999/xlink">
  <!-- Exported by Scratch - http://scratch.mit.edu/ -->
  <g id="ID0.8196931323036551">
    <g id="ID0.7350841015577316">
      <g id="ID0.34164572414010763">
        <path id="ID0.9722420736216009" fill="#00CCCC" d="M 67.390 70.110 C 67.390 73.150 66.260 75.990 64.210 78.110 C 63.880 78.450 63.530 78.770 63.160 79.060 C 62.570 79.530 61.790 80.140 60.820 80.880 C 56.460 84.530 51.950 86.390 47.420 86.390 C 45.990 86.390 44.520 86.210 42.920 85.840 C 42.740 85.800 42.560 85.750 42.380 85.700 C 39.090 84.760 36.090 82.730 32.950 79.320 C 30.930 77.120 29.450 74.970 28.470 72.810 C 24.290 72.450 20.270 71.280 16.490 69.310 C 11.400 66.630 7.400 62.860 4.540 58.060 C 4.520 58.020 4.500 57.990 4.480 57.950 C 2.770 55.010 1.510 51.270 0.630 46.530 C 0.610 46.440 0.600 46.350 0.590 46.270 C 0.200 43.880 0 41.460 0 39.060 C 0 32.910 1.350 26.870 4 21.100 C 4.020 21.040 4.050 20.980 4.080 20.930 C 6.060 16.800 9.020 12.830 13.150 8.780 C 19.150 2.870 24.920 0 30.800 0 C 32.130 0 34.130 0.140 39.640 1.150 C 44.650 2.110 49.640 4.700 55 9.080 C 55.060 9.130 55.130 9.190 55.190 9.240 C 57.880 11.540 60.010 14.880 62.100 20.070 C 64.040 24.910 65.020 29.930 65.020 35.010 C 65.020 38.650 64.520 42.480 63.540 46.390 C 63.540 46.420 63.530 46.460 63.520 46.490 C 62.530 50.290 61.560 52.900 60.370 54.950 C 60.320 55.030 60.280 55.110 60.230 55.190 C 59.800 55.880 59.360 56.550 58.910 57.210 C 59.750 57.530 60.560 57.920 61.340 58.380 C 63.690 59.790 65.390 62 66.190 64.540 C 66.210 64.590 66.230 64.640 66.250 64.690 C 67.030 66.660 67.390 68.370 67.390 70.110 Z "/>
      </g>
    </g>
    <g id="ID0.03899008361622691">
      <path id="ID0.6533174994401634" fill="#FFFFFF" d="M 56.303 70.461 C 55.716 70.929 54.925 71.545 53.928 72.308 C 51.523 74.360 49.354 75.387 47.419 75.387 C 46.832 75.387 46.157 75.298 45.396 75.122 C 44.165 74.770 42.713 73.684 41.042 71.868 C 39.371 70.050 38.388 68.466 38.096 67.118 C 38.154 67.118 38.242 67.058 38.360 66.942 C 37.949 66.355 37.480 64.421 36.953 61.136 C 35.193 61.663 33.287 61.928 31.235 61.928 C 27.834 61.928 24.608 61.136 21.559 59.552 C 18.333 57.852 15.811 55.478 13.995 52.428 C 12.939 50.611 12.089 47.972 11.444 44.511 C 11.150 42.695 11.004 40.876 11.004 39.058 C 11.004 34.484 12.001 30.028 13.995 25.688 C 15.402 22.756 17.689 19.737 20.855 16.627 C 24.667 12.875 27.980 10.998 30.795 10.998 C 31.850 10.998 34.137 11.321 37.655 11.966 C 40.704 12.553 44.164 14.429 48.034 17.595 C 49.265 18.651 50.555 20.850 51.905 24.193 C 53.312 27.711 54.015 31.317 54.015 35.011 C 54.015 37.769 53.633 40.671 52.871 43.719 C 52.168 46.417 51.493 48.323 50.849 49.437 C 48.620 53.074 45.805 56.093 42.405 58.498 C 42.405 61.606 42.844 64.274 43.724 66.502 C 44.837 69.434 46.480 70.753 48.650 70.461 C 48.767 70.461 49.558 69.815 51.025 68.525 C 51.905 67.703 52.841 67.294 53.839 67.294 C 54.484 67.294 55.100 67.470 55.687 67.821 C 55.687 67.879 55.803 68.202 56.039 68.789 C 56.272 69.375 56.391 69.814 56.391 70.108 C 56.391 70.284 56.361 70.401 56.303 70.461 Z M 49.090 35.979 C 49.031 34.338 48.826 32.080 48.475 29.207 C 48.357 29.090 48.152 28.475 47.859 27.359 C 46.509 22.727 44.165 19.795 40.823 18.563 C 39.943 17.977 38.681 17.302 37.041 16.540 C 34.283 15.720 31.440 15.515 28.509 15.925 C 26.807 16.160 24.432 18.154 21.384 21.906 C 18.745 25.248 17.043 28.415 16.282 31.405 C 15.811 33.223 15.578 35.071 15.578 36.947 C 15.578 38.883 15.811 40.905 16.282 43.016 C 16.458 44.366 16.927 46.329 17.689 48.910 C 18.745 51.315 20.826 53.455 23.934 55.331 C 23.992 54.511 24.461 53.016 25.341 50.845 C 26.337 49.262 27.101 48.294 27.628 47.943 C 29.152 46.887 30.795 46.360 32.554 46.360 C 36.717 46.360 39.825 48.558 41.878 52.957 C 42.698 52.019 43.694 50.846 44.868 49.438 C 45.513 48.793 46.143 47.694 46.759 46.139 C 47.375 44.586 47.859 43.662 48.211 43.368 C 48.151 43.075 48.122 42.783 48.122 42.488 C 48.122 42.196 48.268 41.389 48.562 40.070 C 48.856 38.750 49.032 37.386 49.090 35.979 Z M 36.424 56.298 C 35.897 54.246 35.250 52.898 34.489 52.251 C 33.961 51.842 33.315 51.636 32.553 51.636 C 30.970 51.636 30.002 52.369 29.651 53.835 C 29.533 54.069 29.386 54.334 29.211 54.626 C 29.035 55.213 28.859 56.034 28.684 57.089 C 31.674 57.560 34.254 57.296 36.424 56.298 Z "/>
    </g>
  </g>
</svg>
